assets/img/testmonies-decorator.svg

<svg width="345" height="556" viewBox="0 0 345 556" fill="none" xmlns="http://www.w3.org/2000/svg">
<path opacity="0.04" d="M400.974 442.526C384.247 453.295 365.655 459.519 347.273 464.634C331.112 469.132 314.897 472.878 298.629 475.871C294.116 476.705 289.608 477.476 285.104 478.184L281.986 478.665C279.217 479.097 276.443 479.493 273.664 479.855L273.328 479.9C270.613 480.272 267.901 480.617 265.195 480.938C256.332 481.997 247.283 482.798 238.653 482.318C235.709 482.158 232.813 481.853 229.995 481.356C228.469 481.09 226.964 480.765 225.48 480.381C223.051 479.751 220.696 478.964 218.413 477.967C218.03 477.803 217.649 477.632 217.273 477.455C214.986 476.384 212.846 475.127 210.828 473.712C203.437 468.524 197.784 461.195 193.43 452.967C191.254 448.854 189.404 444.515 187.826 440.106C187.63 439.566 187.441 439.023 187.229 438.498C182.038 423.302 179.254 406.96 173.765 391.917C171.875 386.731 169.667 381.724 167.143 376.894C165.91 374.539 164.614 372.227 163.253 369.958C160.029 364.639 156.408 359.607 152.427 354.897C147.087 348.518 140.836 342.663 133.276 339.058C132.27 338.576 131.239 338.138 130.185 337.742C128.85 337.238 127.472 336.81 126.054 336.458C122.174 335.562 117.997 335.09 113.561 335.044C112.698 335.022 111.835 335.011 110.967 335.004C108.244 334.985 105.509 335.014 102.793 334.982C97.8149 335.015 93.1307 334.555 88.7861 333.607C86.4516 333.044 84.2517 332.297 82.1967 331.372C76.7277 328.953 71.9386 325.355 67.7007 321.173C65.6765 319.136 63.7354 317.012 61.9383 314.792L61.8766 314.73C61.2629 313.971 60.6568 313.2 60.0708 312.409C57.3613 308.847 54.8887 305.071 52.6993 301.105C45.1995 287.516 40.9325 271.798 41.6201 255.06C42.5452 232.334 53.2575 207.836 71.9178 191.364C85.3583 179.495 101.778 172.436 117.715 165.385C147.381 152.247 177.02 138.103 204.217 119.126C226.292 103.72 247.149 84.9352 271.573 75.7018C279.394 72.7477 287.412 70.9396 295.327 70.2472C301.225 69.7481 306.819 69.8091 312.054 70.4296C317.987 71.1157 323.536 72.3712 328.659 74.1859C333.106 75.7509 337.256 77.6919 341.088 79.999C343.173 81.2498 345.183 82.6164 347.097 84.0985C348.578 85.2324 349.999 86.4375 351.362 87.7137L351.565 87.9181C352.399 88.6971 353.203 89.506 353.977 90.345C359.664 96.4205 364.435 103.373 368.248 111.139C370.681 115.953 372.815 121.002 374.729 126.121C375.874 129.174 376.955 132.253 377.972 135.357C378.282 136.304 378.587 137.256 378.88 138.205C385.837 160.569 388.109 184.072 393.51 206.915C393.536 207.032 393.56 207.147 393.597 207.255C394.748 211.9 396.242 216.295 398.072 220.42C399.399 223.468 400.891 226.45 402.512 229.381C404.982 233.88 407.738 238.245 410.631 242.525L411.269 243.469C415.511 249.751 420.057 255.825 424.324 261.871C425.838 264.018 427.326 266.16 428.738 268.326C429.649 269.685 430.535 271.047 431.397 272.412C432.013 273.394 432.632 274.379 433.24 275.374C433.849 276.369 434.494 277.42 435.11 278.454C435.514 279.122 435.911 279.793 436.299 280.476C438.699 284.572 440.99 288.761 443.109 293.049C444.399 295.656 445.628 298.302 446.778 300.981C447.611 302.921 448.402 304.878 449.15 306.853C449.712 308.312 450.241 309.785 450.739 311.272C454.827 323.314 457.165 336.063 456.642 349.572C455.326 384.61 432.965 421.933 400.974 442.526Z" fill="#EE4744"/>
</svg>

<svg width="345" height="556" viewBox="0 0 345 556" fill="none" xmlns="http://www.w3.org/2000/svg"><path opacity=".04" d="M400.974 442.526c-16.727 10.769-35.319 16.993-53.701 22.108a557.706 557.706 0 0 1-48.644 11.237 511.585 511.585 0 0 1-13.525 2.313l-3.118.481c-2.769.432-5.543.828-8.322 1.19l-.336.045c-2.715.372-5.427.717-8.133 1.038-8.863 1.059-17.912 1.86-26.542 1.38-2.944-.16-5.84-.465-8.658-.962a57.282 57.282 0 0 1-4.515-.975c-2.429-.63-4.784-1.417-7.067-2.414a35.352 35.352 0 0 1-1.14-.512 42.885 42.885 0 0 1-6.445-3.743c-7.391-5.188-13.044-12.517-17.398-20.745-2.176-4.113-4.026-8.452-5.604-12.861-.196-.54-.385-1.083-.597-1.608-5.191-15.196-7.975-31.538-13.464-46.581a124.279 124.279 0 0 0-6.622-15.023 137.172 137.172 0 0 0-3.89-6.936 118.39 118.39 0 0 0-10.826-15.061c-5.34-6.379-11.591-12.234-19.151-15.839a38.434 38.434 0 0 0-3.091-1.316 36.77 36.77 0 0 0-4.131-1.284c-3.88-.896-8.057-1.368-12.493-1.414a148.82 148.82 0 0 0-2.594-.04c-2.723-.019-5.458.01-8.174-.022-4.978.033-9.662-.427-14.007-1.375a37.378 37.378 0 0 1-6.59-2.235c-5.468-2.419-10.257-6.017-14.495-10.199-2.024-2.037-3.966-4.161-5.763-6.381l-.061-.062a69.448 69.448 0 0 1-1.806-2.321 92.616 92.616 0 0 1-7.372-11.304c-7.5-13.589-11.767-29.307-11.079-46.045.925-22.726 11.638-47.224 30.298-63.696 13.44-11.869 29.86-18.928 45.797-25.979 29.666-13.138 59.305-27.282 86.502-46.259 22.075-15.406 42.932-34.19 67.356-43.424 7.821-2.954 15.839-4.762 23.754-5.455 5.898-.499 11.492-.438 16.727.183 5.933.686 11.482 1.941 16.605 3.756 4.447 1.565 8.597 3.506 12.429 5.813a61.416 61.416 0 0 1 6.009 4.1 56.405 56.405 0 0 1 4.265 3.615l.203.204a46.008 46.008 0 0 1 2.412 2.427c5.687 6.076 10.458 13.028 14.271 20.794 2.433 4.814 4.567 9.863 6.481 14.982a232.036 232.036 0 0 1 3.243 9.236c.31.947.615 1.899.908 2.848 6.957 22.364 9.229 45.867 14.63 68.71.026.117.05.232.087.34 1.151 4.645 2.645 9.04 4.475 13.165a105.765 105.765 0 0 0 4.44 8.961c2.47 4.499 5.226 8.864 8.119 13.144l.638.944c4.242 6.282 8.788 12.356 13.055 18.402 1.514 2.147 3.002 4.289 4.414 6.455a178.66 178.66 0 0 1 2.659 4.086c.616.982 1.235 1.967 1.843 2.962.609.995 1.254 2.046 1.87 3.08.404.668.801 1.339 1.189 2.022 2.4 4.096 4.691 8.285 6.81 12.573a161.89 161.89 0 0 1 3.669 7.932c.833 1.94 1.624 3.897 2.372 5.872a105.478 105.478 0 0 1 1.589 4.419c4.088 12.042 6.426 24.791 5.903 38.3-1.316 35.038-23.677 72.361-55.668 92.954z" fill="#EE4744"/></svg>
